!!!!SEGMENT: pl-sa--79-a-ii-19--007_siwinski-andrzej--missa-pro-defunctis-quid-sum-miser.krn
!!!cenid: 17xx:299
!!!COM: Siwiński, Andrzej
!!!COM-rismid: pe41011487
!!!CDT: <1725->1725
!!!CNT:
!!!OTL: Missa pro defunctis – Quid sum miser
!!!PDT: 1726
!!!AGN: Sacred; Mass
!!!SMS-siglum: PL-SA
!!!SMS-shelfmark: 79/A II 19
!!!SMS-shelfwork: 001-007 M
!!!NIFC-rismid: 1001070177
!!!URL-scan: http://bc.bdsandomierz.pl/dlibra/publication/1356/edition/1324/content
!!!ONB-nifc: Uwaga: części Mszy: Requiem, Kyrie, Dies Irae, Quantus tremor, Tuba mirrum, Mors,
**kern	**fba	**kern	**kern	**kern	**kern	**kern	**text	**kern	**text	**kern	**kern
*part9	*	*part8	*part7	*part6	*part5	*part4	*part4	*part3	*part3	*part2	*part1
*	*	*group3	*group3	*group2	*group2	*group2	*	*group2	*	*group1	*group1
*staff9	*	*staff8	*staff7	*staff6	*staff5	*staff4	*staff4	*staff3	*staff3	*staff2	*staff1
*I"P9	*	*I"Violino. 2do	*I"Violino 1mo	*I"P6	*I"P5	*I"Alto.	*	*I"Canto.	*	*I"Hobois 2do.	*I"Hautbo. 1mo.
*I'bc	*	*I'vl 2	*I'vl 1	*I'B	*I'T	*I'A	*	*I'S	*	*I'ob 2	*I'ob 1
*clefF4	*	*clefG2	*clefG2	*clefF4	*clefC4	*clefC3	*	*clefC1	*	*clefG2	*clefG2
*k[b-e-a-d-]	*	*k[b-e-]	*k[b-e-]	*k[b-e-]	*k[b-e-]	*k[b-e-]	*	*k[b-e-]	*	*k[b-e-]	*k[b-e-]
*M2/2	*	*M2/2	*M2/2	*M2/2	*M2/2	*M2/2	*	*M2/2	*	*M2/2	*M2/2
*met(C.)	*	*met(c|)	*met(c|)	*met(c|)	*met(c|)	*met(c|)	*	*met(c|)	*	*met(c|)	*met(c|)
=1	=1	=1	=1	=1	=1	=1	=1	=1	=1	=1	=1
!LO:TX:a:t=P:problem:mixed beam	!	!	!	!	!	!	!	!	!	!	!
!LO:TX:a:t=P:problem:brak nazwy partii (na stronie tytułowej "Baſso pro Organo")	!	!	!	!LO:TX:a:t=P:problem:brak nazwy partii (na stronie tytułowej "Baſso vocali")	!LO:TX:a:t=P:problem:brak nazwy partii (na stronie tytułowej "Tenore")	!	!	!	!	!	!
!LO:TX:a:t=P:problem:bemole BB-, E-, B-, AA-, D-, A-	!	!	!	!	!	!	!	!LO:TX:a:t=P:problem:bemole b- ee-	!	!	!
!LO:TX:a:t=Solo. lento	!	!	!	!	!	!	!	!	!	!	!
!LO:TX:b:i:t=Quid Sum miser.	!	!LO:TX:a:t=Quid ſum \nTacet	!LO:TX:a:t=Quid ſum miser\nTacet alto. Canto	!LO:TX:a:t=Quid ſum \nTacet	!LO:TX:a:t=Quid ſum. \nTacet	!LO:TX:a:t=Solo	!	!LO:TX:a:t=Solo	!	!LO:TX:a:t=Quid Sum Miser\nTacet A. C.	!LO:TX:a:t=Quid Su(m) miser\nTacet. A. C.
8FF/L	.	1ryy	1ryy	1ryy	1ryy	2r	.	0r	.	1ryy	1ryy
16F\L	.	.	.	.	.	.	.	.	.	.	.
16G\JJ	.	.	.	.	.	.	.	.	.	.	.
!LO:TX:a:t=P:problem:mixed beam	!	!	!	!	!	!	!	!	!	!	!
8A-\L	.	.	.	.	.	.	.	.	.	.	.
8En\	.	.	.	.	.	.	.	.	.	.	.
8F\	.	.	.	.	.	4c\	Quid	.	.	.	.
!LO:TX:b:i:t=alt.	!	!	!	!	!	!	!	!	!	!	!
8FF/J	.	.	.	.	.	.	.	.	.	.	.
4r	.	.	.	.	.	4f\	Sum	.	.	.	.
=2	=2	=2	=2	=2	=2	=2	=2	=2	=2	=2	=2
4C/	.	1ryy	1ryy	1ryy	1ryy	4en\	mi-	.	.	1ryy	1ryy
4r	.	.	.	.	.	(8f\L	-ser	.	.	.	.
.	.	.	.	.	.	8g\J)	.	.	.	.	.
!	!	!	!	!	!	!LO:LB:g=original	!	!	!	!	!
8F/L	.	.	.	.	.	(16a-X\LL	tunc	.	.	.	.
.	.	.	.	.	.	16g\JJ)	.	.	.	.	.
8BB-/	5	.	.	.	.	(16f\LL	dic-	.	.	.	.
.	6	.	.	.	.	16g\JJ)	.	.	.	.	.
8C/	.	.	.	.	.	4ent\	-tu-	.	.	.	.
8CC/J	4	.	.	.	.	.	.	.	.	.	.
.	2	.	.	.	.	.	.	.	.	.	.
=3	=3	=3	=3	=3	=3	=3	=3	=3	=3	=3	=3
!LO:TX:a:t=P:problem:mixed beam	!	!	!	!	!	!	!	!	!	!	!
8FF/L	.	1ryy	1ryy	1ryy	1ryy	4f\	-rus	1r	.	1ryy	1ryy
16F\L	.	.	.	.	.	.	.	.	.	.	.
16G\JJ	.	.	.	.	.	.	.	.	.	.	.
8A-\L	.	.	.	.	.	4r	.	.	.	.	.
8En\J	.	.	.	.	.	.	.	.	.	.	.
8F\L	.	.	.	.	.	2rA	.	.	.	.	.
16B-\L	.	.	.	.	.	.	.	.	.	.	.
16c\JJ	.	.	.	.	.	.	.	.	.	.	.
8d-X\L	.	.	.	.	.	.	.	.	.	.	.
!LO:TX:a:t=P:problem:♮ above	!	!	!	!	!	!	!	!	!	!	!
8An\J	.	.	.	.	.	.	.	.	.	.	.
=4	=4	=4	=4	=4	=4	=4-	=4	=4	=4	=4	=4
!LO:TX:b:i:t=Cant.	!	!	!	!	!	!	!	!	!	!	!
!LO:TX:a:t=P:problem:mixed beam	!	!	!	!	!	!	!	!	!	!	!
8B-\L	.	1ryy	1ryy	1ryy	1ryy	0r	.	4f/	Quem	1ryy	1ryy
8BB-/J	.	.	.	.	.	.	.	.	.	.	.
4r	.	.	.	.	.	.	.	4b-\	Pat-	.	.
4F\	.	.	.	.	.	.	.	4a\	-ro-	.	.
4r	.	.	.	.	.	.	.	(8b-\L	-num	.	.
.	.	.	.	.	.	.	.	8cc\J)	.	.	.
=5	=5	=5	=5	=5	=5	=5	=5	=5	=5	=5	=5
!LO:TX:a:t=P:problem:mixed beam	!	!	!	!	!	!	!	!	!	!	!
8B-\L	.	1ryy	1ryy	1ryy	1ryy	.	.	(16dd-X\LL	ro-	1ryy	1ryy
.	.	.	.	.	.	.	.	16cc\JJ)	.	.	.
8E-\	5	.	.	.	.	.	.	(16b-\LL	-ga-	.	.
.	6	.	.	.	.	.	.	16cc\JJ)	.	.	.
!	!	!	!	!	!	!	!	!LO:TX:a:t=P:problem:♮ above	!	!	!
8F\	.	.	.	.	.	.	.	4an\	-tu-	.	.
8FF/J	4	.	.	.	.	.	.	.	.	.	.
.	3	.	.	.	.	.	.	.	.	.	.
8BB-/L	.	.	.	.	.	.	.	4b-\	-rus	.	.
16B-\L	.	.	.	.	.	.	.	.	.	.	.
16c\JJ	.	.	.	.	.	.	.	.	.	.	.
8d-X\L	.	.	.	.	.	.	.	4r	.	.	.
8An\J	.	.	.	.	.	.	.	.	.	.	.
=6	=6	=6	=6	=6	=6	=6	=6	=6	=6	=6	=6
8B-\L	.	1ryy	1ryy	1ryy	1ryy	2r	.	0r	.	1ryy	1ryy
16F\L	.	.	.	.	.	.	.	.	.	.	.
16G\JJ	.	.	.	.	.	.	.	.	.	.	.
8A-X\L	.	.	.	.	.	.	.	.	.	.	.
8En\J	.	.	.	.	.	.	.	.	.	.	.
!LO:LB:g=original	!	!	!	!	!	!	!	!	!	!	!
!LO:TX:a:t=P:problem:mixed beam	!	!	!	!	!	!	!	!	!	!	!
8F\L	.	.	.	.	.	4c\	Quid	.	.	.	.
8FF/J	.	.	.	.	.	.	.	.	.	.	.
4r	.	.	.	.	.	4f\	Sum	.	.	.	.
=7	=7	=7	=7	=7	=7	=7	=7	=7	=7	=7	=7
4C/	.	1ryy	1ryy	1ryy	1ryy	4en\	Mi-	.	.	1ryy	1ryy
4r	.	.	.	.	.	(8f\L	-ser	.	.	.	.
.	.	.	.	.	.	8g\J)	.	.	.	.	.
!LO:TX:a:t=P:problem:mixed beam	!	!	!	!	!	!	!	!	!	!	!
8F\L	.	.	.	.	.	(16a-X\LL	tunc	.	.	.	.
.	.	.	.	.	.	16g\JJ)	.	.	.	.	.
8BB-\	5	.	.	.	.	(16f\LL	dic-	.	.	.	.
.	6	.	.	.	.	16g\JJ)	.	.	.	.	.
8C\	.	.	.	.	.	4en\	-tu-	.	.	.	.
8CC/J	4	.	.	.	.	.	.	.	.	.	.
.	3	.	.	.	.	.	.	.	.	.	.
=8	=8	=8	=8	=8	=8	=8	=8	=8	=8	=8	=8
!LO:TX:a:t=P:problem:mixed beam	!	!	!	!	!	!	!	!	!	!	!
8FF/L	.	1ryy	1ryy	1ryy	1ryy	4f\	-rus	1r	.	1ryy	1ryy
16F\L	.	.	.	.	.	.	.	.	.	.	.
16G\JJ	.	.	.	.	.	.	.	.	.	.	.
8A-X\L	.	.	.	.	.	4r	.	.	.	.	.
8En\J	.	.	.	.	.	.	.	.	.	.	.
8F\L	.	.	.	.	.	2r	.	.	.	.	.
16B-\L	.	.	.	.	.	.	.	.	.	.	.
16c\JJ	.	.	.	.	.	.	.	.	.	.	.
8d-X\L	.	.	.	.	.	.	.	.	.	.	.
8An\J	.	.	.	.	.	.	.	.	.	.	.
=9	=9	=9	=9	=9	=9	=9-	=9	=9	=9	=9	=9
!LO:TX:a:t=P:problem:mixed beam	!	!	!	!	!	!	!	!	!	!	!
8B-\L	.	1ryy	1ryy	1ryy	1ryy	0r	.	4f/	Quem	1ryy	1ryy
8BB-/J	.	.	.	.	.	.	.	.	.	.	.
4r	.	.	.	.	.	.	.	4b-\	Pat-	.	.
4F\	.	.	.	.	.	.	.	4a\	-ro-	.	.
4r	.	.	.	.	.	.	.	(8b-\L	-num	.	.
.	.	.	.	.	.	.	.	8cc\J)	.	.	.
=10	=10	=10	=10	=10	=10	=10	=10	=10	=10	=10	=10
!LO:TX:a:t=P:problem:mixed beam	!	!	!	!	!	!	!	!	!	!	!
8B-\L	.	1ryy	1ryy	1ryy	1ryy	.	.	(16dd-X\LL	ro-	1ryy	1ryy
.	.	.	.	.	.	.	.	16cc\JJ)	.	.	.
8E-\	5	.	.	.	.	.	.	(16b-\LL	-ga-	.	.
.	6	.	.	.	.	.	.	16cc\JJ)	.	.	.
8F\	.	.	.	.	.	.	.	4a\	-tu-	.	.
8FF/J	4	.	.	.	.	.	.	.	.	.	.
.	3	.	.	.	.	.	.	.	.	.	.
!LO:TX:a:t=P:problem:mixed beam	!	!	!	!	!	!	!	!	!	!	!
8BB-/L	.	.	.	.	.	.	.	4b-\	-rus	.	.
16B-\L	.	.	.	.	.	.	.	.	.	.	.
16c\JJ	.	.	.	.	.	.	.	.	.	.	.
8d-X\L	.	.	.	.	.	.	.	4r	.	.	.
8An\J	.	.	.	.	.	.	.	.	.	.	.
=11	=11	=11	=11	=11	=11	=11	=11	=11	=11	=11	=11
8B-\L	.	1ryy	1ryy	1ryy	1ryy	2r	.	2rf	.	1ryy	1ryy
16F\L	.	.	.	.	.	.	.	.	.	.	.
16G\JJ	.	.	.	.	.	.	.	.	.	.	.
8A-X\L	.	.	.	.	.	.	.	.	.	.	.
8En\J	.	.	.	.	.	.	.	.	.	.	.
!LO:TX:a:t=P:problem:mixed beam	!	!	!	!	!	!	!	!	!	!	!
8F\L	.	.	.	.	.	4.a-X\	dum	4.cc\	dum	.	.
8FF/J	.	.	.	.	.	.	.	.	.	.	.
4r	.	.	.	.	.	.	.	.	.	.	.
.	.	.	.	.	.	(16b-\LL	vix	(16dd-X\LL	vix	.	.
.	.	.	.	.	.	16a-\JJ)	.	16cc\JJ)	.	.	.
!LO:LB:g=original	!	!	!	!	!	!	!	!	!	!	!
=12	=12	=12	=12	=12	=12	=12	=12	=12	=12	=12	=12
!	!	!	!	!	!	!	!	!LO:TX:a:t=P:problem:♭ above	!	!	!
8r	.	1ryy	1ryy	1ryy	1ryy	4g\	Jus-	4b-X\	Jus-	1ryy	1ryy
8E-\L	5	.	.	.	.	.	.	.	.	.	.
8G\	.	.	.	.	.	4g\	-tus	4b-\	-tus	.	.
8E-\J	5	.	.	.	.	.	.	.	.	.	.
!	!	!	!	!	!	!	!	!LO:LB:g=original	!	!	!
*	*	*	*	*	*	*	*ij	*	*ij	*	*
8r	.	.	.	.	.	4.g\	dum	4.b-\	dum	.	.
8G\L	.	.	.	.	.	.	.	.	.	.	.
8En\	6	.	.	.	.	.	.	.	.	.	.
8C\J	.	.	.	.	.	(16a-X\LL	vix	(16cc\LL	vix	.	.
.	.	.	.	.	.	16g\JJ)	.	16b-\JJ)	.	.	.
!	!	!	!	!	!	!LO:LB:g=original	!	!	!	!	!
=13	=13	=13	=13	=13	=13	=13	=13	=13	=13	=13	=13
8r	.	1ryy	1ryy	1ryy	1ryy	4f\	Jus-	4a-X\	Jus-	1ryy	1ryy
8FF/L	.	.	.	.	.	.	.	.	.	.	.
8AA-X/	.	.	.	.	.	4f\	-tus	4a-\	-tus	.	.
*	*	*	*	*	*	*	*Xij	*	*Xij	*	*
8FF/J	.	.	.	.	.	.	.	.	.	.	.
8GG/L	.	.	.	.	.	8g\	Sit	8b-\	Sit	.	.
16AA-X/L	.	.	.	.	.	(16f\LL	Se-	16cc\LL	Se-	.	.
16BB-/JJ	.	.	.	.	.	16g\JJ)	.	16dd-X\JJ	.	.	.
8C/L	.	.	.	.	.	4en\	-cu-	4g/	-cu-	.	.
8CC/J	4	.	.	.	.	.	.	.	.	.	.
.	3	.	.	.	.	.	.	.	.	.	.
=14	=14	=14	=14	=14	=14	=14	=14	=14	=14	=14	=14
!LO:TX:a:t=P:problem:mixed beam	!	!	!	!	!	!	!	!	!	!	!
8FF/L	.	1ryy	1ryy	1ryy	1ryy	4f\	-rus	4f/	-rus	1ryy	1ryy
16F\L	.	.	.	.	.	.	.	.	.	.	.
16G\JJ	.	.	.	.	.	.	.	.	.	.	.
8A-X\L	.	.	.	.	.	4r	.	4r	.	.	.
8En\J	.	.	.	.	.	.	.	.	.	.	.
!LO:TX:a:t=P:problem:mixed beam	!	!	!	!	!	!	!	!	!	!	!
8F\L	.	.	.	.	.	4.a-X\	dum	4.cc\	dum	.	.
8FF/J	.	.	.	.	.	.	.	.	.	.	.
4r	.	.	.	.	.	.	.	.	.	.	.
.	.	.	.	.	.	(16b-\LL	vix	(16dd-X\LL	vix	.	.
.	.	.	.	.	.	16a-\JJ)	.	16cc\JJ)	.	.	.
=15	=15	=15	=15	=15	=15	=15	=15	=15	=15	=15	=15
8r	.	1ryy	1ryy	1ryy	1ryy	4g\	Jus-	4b-\	Jus-	1ryy	1ryy
8E-\L	5	.	.	.	.	.	.	.	.	.	.
8G\	.	.	.	.	.	4g\	-tus	4b-\	-tus	.	.
8E-\J	5	.	.	.	.	.	.	.	.	.	.
*	*	*	*	*	*	*	*ij	*	*ij	*	*
8r	.	.	.	.	.	4.g\	dum	4.b-\	dum	.	.
8G\L	.	.	.	.	.	.	.	.	.	.	.
8En\	6	.	.	.	.	.	.	.	.	.	.
8C\J	.	.	.	.	.	(16a-X\LL	vix	(16cc\LL	vix	.	.
.	.	.	.	.	.	16g\JJ)	.	16b-\JJ)	.	.	.
=16	=16	=16	=16	=16	=16	=16	=16	=16	=16	=16	=16
8r	.	1ryy	1ryy	1ryy	1ryy	4f\	Jus-	4a-X\	Jus-	1ryy	1ryy
8FF/L	.	.	.	.	.	.	.	.	.	.	.
8AA-X/	.	.	.	.	.	4f\	-tus	4a-\	-stus	.	.
*	*	*	*	*	*	*	*Xij	*	*Xij	*	*
8FF/J	.	.	.	.	.	.	.	.	.	.	.
8GG/L	.	.	.	.	.	8g\	Sit	8b-\	Sit	.	.
16AA-X/L	.	.	.	.	.	(16f\LL	Se-	16cc\LL	Se-	.	.
16BB-/JJ	.	.	.	.	.	16g\JJ)	.	16dd-X\JJ	.	.	.
8C/L	.	.	.	.	.	4en\	-cu-	4g/	-cu-	.	.
8CC/J	4	.	.	.	.	.	.	.	.	.	.
.	3	.	.	.	.	.	.	.	.	.	.
=17	=17	=17	=17	=17	=17	=17	=17	=17	=17	=17	=17
4FF/	.	4ryy	4ryy	4ryy	4ryy	4f\	-rus	4f/	-rus	4ryy	4ryy
==	==	==	==	==	==	==	==	==	==	==	==
*-	*-	*-	*-	*-	*-	*-	*-	*-	*-	*-	*-
!!!system-decoration: [g1][g2][g3]s9
!!!ENC: Marta Lawrence
!!!END: 2020-12-02
!!!ENC: Kamil Watkowski
!!!END: 2020-04-21
